X:1
T: Mrs MacPherson of Cluny
C:
R:Jig
Q:180
K:A
M:6/8
L:1/16
d2|c4e2 e2c2e2|f2g2a2 e2c2A2|c4e2 e2c2A2|G2A2B2 B2c2d2|c4e2 e2c2e2|f2g2a2 e2c2A2|B2c2d2 e2f2g2|a2e2c2 A4d2|
c4e2 e2c2e2|f2g2a2 e2c2A2|c4e2 e2c2A2|G2A2B2 B2c2d2|c4e2 e2c2e2|f2g2a2 e2c2A2|B2c2d2 e2f2g2|a2e2c2 A3efg|
a6 A2c2e2|a2g2a2 e2c2A2|d2c2B2 f2d2B2|b2g2e2 e2f2g2|a6 A2c2e2|a2g2a2 e2c2A2|B2c2d2 e2f2g2|a2e2c2 A3efg|
a6 A2c2e2|a2g2a2 e2c2A2|d2c2B2 f2d2B2|b2g2e2 e2f2g2|a4e2 e2c2e2|f2g2a2 e2c2A2|B2c2d2 e2f2g2|a2e2c2 A4||
